48x48/apps/spflashtool.svg

<svg xmlns="http://www.w3.org/2000/svg" width="48" height="48" version="1"><path style="opacity:.2" d="M9 38v5c0 1.108.892 2 2 2h26c1.108 0 2-.892 2-2v-5z"/><path style="fill:#f4f4f7" d="M11 4c-1.108 0-2 .892-2 2v31h30V6c0-1.108-.892-2-2-2H11z"/><path style="fill:#4f4f4f" d="M9 37v5c0 1.108.892 2 2 2h26c1.108 0 2-.892 2-2v-5z"/><path style="fill:#73ac05" d="M11 11v3h3v-3h-3zm3 3v3h3v-3h-3zm3 3v3h-3v3h-3v4h26v-4h-3v-3h-3v-3H17zm14 0h3v-3h-3v3zm3-3h3v-3h-3v3zM11 29v8h26v-8H11z"/><path style="opacity:.2" d="M17 23h3v3h-3z"/><path style="fill:#f4f4f7" d="M17 22h3v3h-3z"/><path style="opacity:.2" d="M28 23h3v3h-3z"/><path style="fill:#f4f4f7" d="M28 22h3v3h-3z"/><path style="opacity:.2" d="M9 37h30v1H9z"/><path style="opacity:.2;fill:#f4f4f7" d="M11 4c-1.108 0-2 .892-2 2v1c0-1.108.892-2 2-2h26c1.108 0 2 .892 2 2V6c0-1.108-.892-2-2-2H11z"/></svg>

<svg xmlns="http://www.w3.org/2000/svg" width="48" height="48" version="1">
 <path style="opacity:0.2" d="m 9,38 v 5 c 0,1.108 0.892,2 2,2 h 26 c 1.108,0 2,-0.892 2,-2 v -5 z"/>
 <path style="fill:#f4f4f7" d="M 11 4 C 9.892 4 9 4.892 9 6 L 9 37 L 39 37 L 39 6 C 39 4.892 38.108 4 37 4 L 11 4 z"/>
 <path style="fill:#4f4f4f" d="m 9,37 v 5 c 0,1.108 0.892,2 2,2 h 26 c 1.108,0 2,-0.892 2,-2 v -5 z"/>
 <path style="fill:#73ac05" d="M 11 11 L 11 14 L 14 14 L 14 11 L 11 11 z M 14 14 L 14 17 L 17 17 L 17 14 L 14 14 z M 17 17 L 17 20 L 14 20 L 14 23 L 11 23 L 11 27 L 37 27 L 37 23 L 34 23 L 34 20 L 31 20 L 31 17 L 17 17 z M 31 17 L 34 17 L 34 14 L 31 14 L 31 17 z M 34 14 L 37 14 L 37 11 L 34 11 L 34 14 z M 11 29 L 11 37 L 37 37 L 37 29 L 11 29 z"/>
 <rect style="opacity:0.2" width="3" height="3" x="17" y="23"/>
 <rect style="fill:#f4f4f7" width="3" height="3" x="17" y="22"/>
 <rect style="opacity:0.2" width="3" height="3" x="28" y="23"/>
 <rect style="fill:#f4f4f7" width="3" height="3" x="28" y="22"/>
 <rect style="opacity:0.2" width="30" height="1" x="9" y="37"/>
 <path style="opacity:0.2;fill:#f4f4f7" d="M 11 4 C 9.892 4 9 4.892 9 6 L 9 7 C 9 5.892 9.892 5 11 5 L 37 5 C 38.108 5 39 5.892 39 7 L 39 6 C 39 4.892 38.108 4 37 4 L 11 4 z"/>
</svg>
